X: 14761
T: Gan Ainm
R: jig
M: 6/8
K: Gmajor
d3 g2 d|B2 G G3|A3 Bcd|e2 A A3|
d3 g2 d|B2 G G3|A3 cAG|F2 D D3|
d3 g2 d|B2 G G3|A3 Bcd|e2 A A3|
gfe f2 d|e2 c d2 B|ABA cAG|F2 D D3|
|:G3 B2 c|d2 c BAG|A3 Bcd|e2 d cAF|
G3 B2 c|d2 c BAG|AAA A2 G|F2 D D3:|

